icons/honour-line.svg

<svg viewBox="0 0 24 24" fill="currentColor" xmlns="http://www.w3.org/2000/svg"><path d="M21 4V18.7215C21 18.9193 20.8833 19.0986 20.7024 19.1787L12 23.0313L3.29759 19.1787C3.11667 19.0986 3 18.9193 3 18.7215V4H1V2H23V4H21ZM5 4V17.7451L12 20.8441L19 17.7451V4H5ZM8 8H16V10H8V8ZM8 12H16V14H8V12Z"/></svg>

<svg xmlns="http://www.w3.org/2000/svg" viewBox="0 0 24 24">
    <g>
        <path fill="none" d="M0 0h24v24H0z"/>
        <path d="M21 4v14.721a.5.5 0 0 1-.298.458L12 23.03 3.298 19.18A.5.5 0 0 1 3 18.72V4H1V2h22v2h-2zM5 4v13.745l7 3.1 7-3.1V4H5zm3 4h8v2H8V8zm0 4h8v2H8v-2z"/>
    </g>
</svg>
